client/src/assets/footer/insta.svg

<svg width="48" height="48" viewBox="0 0 48 48" fill="none" xmlns="http://www.w3.org/2000/svg">
<rect width="48" height="48" rx="8" fill="#D0BEC4"/>
<path d="M24 14.1687C27.1807 14.1687 27.6145 14.1687 28.9157 14.1687C30.0723 14.1687 30.6506 14.4578 31.0843 14.6024C31.6627 14.8916 32.0964 15.0361 32.5301 15.4699C32.9639 15.9036 33.253 16.3374 33.3976 16.9157C33.5422 17.3494 33.6867 17.9277 33.8313 19.0843C33.8313 20.3855 33.8313 20.6747 33.8313 24C33.8313 27.3253 33.8313 27.6145 33.8313 28.9157C33.8313 30.0723 33.5422 30.6506 33.3976 31.0843C33.1084 31.6627 32.9639 32.0964 32.5301 32.5301C32.0964 32.9639 31.6627 33.253 31.0843 33.3976C30.6506 33.5422 30.0723 33.6867 28.9157 33.8313C27.6145 33.8313 27.3253 33.8313 24 33.8313C20.6747 33.8313 20.3855 33.8313 19.0843 33.8313C17.9277 33.8313 17.3494 33.5422 16.9157 33.3976C16.3374 33.1084 15.9036 32.9639 15.4699 32.5301C15.0361 32.0964 14.747 31.6627 14.6024 31.0843C14.4578 30.6506 14.3133 30.0723 14.1687 28.9157C14.1687 27.6145 14.1687 27.3253 14.1687 24C14.1687 20.6747 14.1687 20.3855 14.1687 19.0843C14.1687 17.9277 14.4578 17.3494 14.6024 16.9157C14.8916 16.3374 15.0361 15.9036 15.4699 15.4699C15.9036 15.0361 16.3374 14.747 16.9157 14.6024C17.3494 14.4578 17.9277 14.3133 19.0843 14.1687C20.3855 14.1687 20.8193 14.1687 24 14.1687ZM24 12C20.6747 12 20.3855 12 19.0843 12C17.7831 12 16.9157 12.2892 16.1928 12.5783C15.4699 12.8675 14.747 13.3012 14.0241 14.0241C13.3012 14.747 13.012 15.3253 12.5783 16.1928C12.2892 16.9157 12.1446 17.7831 12 19.0843C12 20.3855 12 20.8193 12 24C12 27.3253 12 27.6145 12 28.9157C12 30.2169 12.2892 31.0843 12.5783 31.8072C12.8675 32.5301 13.3012 33.253 14.0241 33.9759C14.747 34.6988 15.3253 34.988 16.1928 35.4217C16.9157 35.7108 17.7831 35.8554 19.0843 36C20.3855 36 20.8193 36 24 36C27.1807 36 27.6145 36 28.9157 36C30.2169 36 31.0843 35.7108 31.8072 35.4217C32.5301 35.1325 33.253 34.6988 33.9759 33.9759C34.6988 33.253 34.988 32.6747 35.4217 31.8072C35.7108 31.0843 35.8554 30.2169 36 28.9157C36 27.6145 36 27.1807 36 24C36 20.8193 36 20.3855 36 19.0843C36 17.7831 35.7108 16.9157 35.4217 16.1928C35.1325 15.4699 34.6988 14.747 33.9759 14.0241C33.253 13.3012 32.6747 13.012 31.8072 12.5783C31.0843 12.2892 30.2169 12.1446 28.9157 12C27.6145 12 27.3253 12 24 12Z" fill="#4B3542"/>
<path d="M24 17.7831C20.5301 17.7831 17.7831 20.5301 17.7831 24C17.7831 27.4699 20.5301 30.2169 24 30.2169C27.4699 30.2169 30.2169 27.4699 30.2169 24C30.2169 20.5301 27.4699 17.7831 24 17.7831ZM24 28.0482C21.8313 28.0482 19.9518 26.3133 19.9518 24C19.9518 21.8313 21.6867 19.9518 24 19.9518C26.1687 19.9518 28.0482 21.6867 28.0482 24C28.0482 26.1687 26.1687 28.0482 24 28.0482Z" fill="#4B3542"/>
<path d="M30.3614 19.0843C31.1599 19.0843 31.8072 18.437 31.8072 17.6386C31.8072 16.8401 31.1599 16.1928 30.3614 16.1928C29.563 16.1928 28.9157 16.8401 28.9157 17.6386C28.9157 18.437 29.563 19.0843 30.3614 19.0843Z" fill="#4B3542"/>
</svg>

<svg width="48" height="48" fill="none" xmlns="http://www.w3.org/2000/svg">
  <rect width="48" height="48" rx="8" fill="#D0BEC4"/>
  <path d="M24 14.169h4.916c1.156 0 1.735.289 2.168.433.579.29 1.012.434 1.446.868.434.434.723.867.868 1.446.144.433.289 1.012.433 2.168v9.832c0 1.156-.289 1.735-.433 2.168-.29.579-.434 1.012-.868 1.446-.434.434-.867.723-1.446.868-.433.144-1.012.289-2.168.433h-9.832c-1.156 0-1.735-.289-2.168-.433-.579-.29-1.012-.434-1.446-.868-.434-.434-.723-.867-.868-1.446-.144-.433-.289-1.012-.433-2.168v-9.832c0-1.156.289-1.735.433-2.168.29-.579.434-1.012.868-1.446.434-.434.867-.723 1.446-.868.433-.144 1.012-.289 2.168-.433H24ZM24 12h-4.916c-1.3 0-2.168.29-2.891.578a6.314 6.314 0 0 0-2.169 1.446c-.723.723-1.012 1.301-1.446 2.169-.289.723-.433 1.59-.578 2.891v9.832c0 1.3.29 2.168.578 2.891.29.723.723 1.446 1.446 2.169.723.723 1.301 1.012 2.169 1.446.723.289 1.59.433 2.891.578h9.832c1.3 0 2.168-.29 2.891-.578a6.314 6.314 0 0 0 2.169-1.446c.723-.723 1.012-1.301 1.446-2.169.289-.723.433-1.59.578-2.891v-9.832c0-1.3-.29-2.168-.578-2.891a6.314 6.314 0 0 0-1.446-2.169c-.723-.723-1.301-1.012-2.169-1.446-.723-.289-1.59-.433-2.891-.578H24Z" fill="#4B3542"/>
  <path d="M24 17.783A6.17 6.17 0 0 0 17.783 24 6.17 6.17 0 0 0 24 30.217 6.17 6.17 0 0 0 30.217 24 6.17 6.17 0 0 0 24 17.783Zm0 10.265c-2.169 0-4.048-1.735-4.048-4.048 0-2.169 1.735-4.048 4.048-4.048 2.169 0 4.048 1.735 4.048 4.048 0 2.169-1.88 4.048-4.048 4.048Zm6.361-8.964a1.446 1.446 0 1 0 0-2.891 1.446 1.446 0 0 0 0 2.891Z" fill="#4B3542"/>
</svg>
